icons/haxelib.svg

<svg xmlns="http://www.w3.org/2000/svg" viewBox="0 0 16 16"><path fill="#9ccc65" d="M14.961 11.147 13.387 8l1.573-3.146.04-.079V1h-3.775l-.079.039L8 2.611 4.853 1.039 4.775 1H1v3.775l.039.079L2.613 8l-1.574 3.147-.039.079V15h3.775l.079-.04L8 13.386l3.146 1.575.079.039H15v-3.774Zm-2.3-3.455L8.309 3.337l5.8-1.449Zm-9.324 0-1.451-5.8 5.805 1.45Zm0 .618 4.353 4.353-5.8 1.45Zm9.325 0 1.451 5.8-5.8-1.45Z" data-iconColor="Haxelib"/></svg>

<!--
  - The MIT License (MIT)
  -
  - Copyright (c) 2015-2024 Elior "Mallowigi" Boukhobza
  -
  - Permission is hereby granted, free of charge, to any person obtaining a copy
  - of this software and associated documentation files (the "Software"), to deal
  - in the Software without restriction, including without limitation the rights
  - to use, copy, modify, merge, publish, distribute, sublicense, and/or sell
  - copies of the Software, and to permit persons to whom the Software is
  - furnished to do so, subject to the following conditions:
  -
  - The above copyright notice and this permission notice shall be included in all
  - copies or substantial portions of the Software.
  -
  - THE SOFTWARE IS PROVIDED "AS IS", WITHOUT WARRANTY OF ANY KIND, EXPRESS OR
  - IMPLIED, INCLUDING BUT NOT LIMITED TO THE WARRANTIES OF MERCHANTABILITY,
  - FITNESS FOR A PARTICULAR PURPOSE AND NONINFRINGEMENT. IN NO EVENT SHALL THE
  - AUTHORS OR COPYRIGHT HOLDERS BE LIABLE FOR ANY CLAIM, DAMAGES OR OTHER
  - LIABILITY, WHETHER IN AN ACTION OF CONTRACT, TORT OR OTHERWISE, ARISING FROM,
  - OUT OF OR IN CONNECTION WITH THE SOFTWARE OR THE USE OR OTHER DEALINGS IN THE
  - SOFTWARE.
  -
  -->

<svg  xmlns="http://www.w3.org/2000/svg" width="16px" height="16px" viewBox="0 0 16 16">
  <path fill="#9CCC65" data-iconColor="Haxelib"
        d="M14.961,11.147L13.387,8,14.96,4.854,15,4.775V1H11.225l-0.079.039L8,2.611,4.853,1.039,4.775,1H1V4.775L1.039,4.854,2.613,8,1.039,11.147,1,11.226V15H4.775l0.079-.04L8,13.386l3.146,1.575L11.225,15H15V11.226Zm-2.3-3.455L8.309,3.337l5.8-1.449Zm-9.324,0-1.451-5.8,5.805,1.45Zm0,0.618,4.353,4.353-5.8,1.45Zm9.325,0,1.451,5.8-5.8-1.45Z"
  />
</svg>
